X: 3129
Q: "Strathspey."
M: C
L: 1/16
K: C
uF2 |\
(vEFG2) C3G E3Gc3G | vA3vc (AG)FE FD3D3uF |\
(EFG2) C3G E3Gc3G | Ac3 G3F EC3 C2 ::\
(uef) |\
gc3ac3 gc3ec3 |
[1 gc3ac3 gc3ec3 | Gc3 G3FEC3 C2 :|\
[2 g3ef3d e3cd3c | G3c AGFE Gc3 c2 |]


